X: 2
T: Ril Na Drithleog
M: 4/4
L: 1/8
R: reel
K: Gmaj
|: ge |\ 
dB B2 dBGB | dB({d}BA) Bdge | d(B ~B2) dBG(B | cB)ce agfe |
d(B ~B2) dBG(A | BA)B(d gf)ga | bagb agf(a |[1 gf)ga ba :|[2 gfed Bee(f ||
g2)bg fga(f | ga)fg edBd | g/g/g bg (fg)af | ({a}g)fed Bee(f | g2) bg fga(f |
ga)fg edBd | (gfg)a bga(f |[1{a}gf)ed Bee(f :|[2{a}gf)ed Bd |]
